images/client-logos/deutsche-bahn.svg

<svg fill="none" height="267" viewBox="0 0 389 267" width="389" xmlns="http://www.w3.org/2000/svg"><g fill="#e3e8f0"><path clip-rule="evenodd" d="m343.259.592773c25.014 0 45.362 20.348227 45.362 45.359627v175.5876c0 25.013-20.351 45.362-45.362 45.362h-297.0259c-25.0114 0-45.359565-20.351-45.359565-45.362v-175.5876c0-25.0114 20.348165-45.359627 45.359565-45.359627zm24.875 220.947227v-175.5876c0-13.7161-11.157-24.8767-24.875-24.8767h-297.0259c-13.716 0-24.8767 11.1606-24.8767 24.8767v175.5876c0 13.718 11.1607 24.879 24.8767 24.879h297.0259c13.718 0 24.875-11.161 24.875-24.879z" fill-rule="evenodd"/><path d="m91.574 70.3063h-.5v.5 124.3857.5h.5 21.944c5.188 0 9.942-1.019 14.149-3.306 4.209-2.288 7.844-5.83 10.816-10.835 5.934-9.992 9.239-25.832 9.239-49.279 0-23.425-3.304-38.9066-9.243-48.5439-5.97-9.6876-14.572-13.4218-24.961-13.4218zm197.532 152.1907h-79.956v-177.4975h84.405c18.752 0 35.399 14.8143 40.104 32.9193 2.348 9.0364 1.715 18.8749-3.115 28.0802-4.829 9.207-13.877 17.821-28.427 24.362l-1.635.735 1.78.217c14.857 1.814 25.327 8.425 31.726 17.286 6.406 8.869 8.762 20.031 7.314 30.986-2.894 21.898-20.983 42.912-52.196 42.912zm-39.48-152.1907h-.5v.5 45.3407.5h.5 18.993c7.82 0 13.724-2.887 17.669-7.249 3.936-4.353 5.895-10.1448 5.895-15.9213s-1.959-11.5681-5.895-15.9213c-3.945-4.3618-9.849-7.2491-17.669-7.2491zm0 76.0957h-.5v.5 48.292.5h.5 23.438c8.168 0 14.331-3.075 18.446-7.714 4.108-4.63 6.151-10.79 6.151-16.932 0-6.143-2.043-12.302-6.151-16.933-4.115-4.639-10.278-7.713-18.446-7.713zm-198.4867-101.4025h75.5957c19.594 0 34.794 7.6117 45.114 21.7326 10.335 14.1428 15.809 34.8659 15.809 61.1349 0 26.306-4.388 49.989-14.202 67.078-9.796 17.059-24.996 27.554-46.721 27.554h-75.5957z" stroke="#e3e8f0"/></g></svg>

<svg width="389" height="267" viewBox="0 0 389 267" fill="none" xmlns="http://www.w3.org/2000/svg">
<path fill-rule="evenodd" clip-rule="evenodd" d="M343.259 0.592773C368.273 0.592773 388.621 20.941 388.621 45.9524V221.54C388.621 246.553 368.27 266.902 343.259 266.902H46.2331C21.2217 266.902 0.873535 246.551 0.873535 221.54V45.9524C0.873535 20.941 21.2217 0.592773 46.2331 0.592773H343.259ZM368.134 221.54V45.9524C368.134 32.2363 356.977 21.0757 343.259 21.0757H46.2331C32.5171 21.0757 21.3564 32.2363 21.3564 45.9524V221.54C21.3564 235.258 32.5171 246.419 46.2331 246.419H343.259C356.977 246.419 368.134 235.258 368.134 221.54Z" fill="#E3E8F0"/>
<path d="M91.574 70.3063H91.074V70.8063V195.192V195.692H91.574H113.518C118.706 195.692 123.46 194.673 127.667 192.386C131.876 190.098 135.511 186.556 138.483 181.551C144.417 171.559 147.722 155.719 147.722 132.272C147.722 108.847 144.418 93.3654 138.479 83.7281C132.509 74.0405 123.907 70.3063 113.518 70.3063H91.574ZM289.106 222.497H209.15V44.9995H293.555C312.307 44.9995 328.954 59.8138 333.659 77.9188C336.007 86.9552 335.374 96.7937 330.544 105.999C325.715 115.206 316.667 123.82 302.117 130.361L300.482 131.096L302.262 131.313C317.119 133.127 327.589 139.738 333.988 148.599C340.394 157.468 342.75 168.63 341.302 179.585C338.408 201.483 320.319 222.497 289.106 222.497ZM249.626 70.3063H249.126V70.8063V116.147V116.647H249.626H268.619C276.439 116.647 282.343 113.76 286.288 109.398C290.224 105.045 292.183 99.2532 292.183 93.4767C292.183 87.7002 290.224 81.9086 286.288 77.5554C282.343 73.1936 276.439 70.3063 268.619 70.3063H249.626ZM249.626 146.402H249.126V146.902V195.194V195.694H249.626H273.064C281.232 195.694 287.395 192.619 291.51 187.98C295.618 183.35 297.661 177.19 297.661 171.048C297.661 164.905 295.618 158.746 291.51 154.115C287.395 149.476 281.232 146.402 273.064 146.402H249.626ZM51.1393 44.9995H126.735C146.329 44.9995 161.529 52.6112 171.849 66.7321C182.184 80.8749 187.658 101.598 187.658 127.867C187.658 154.173 183.27 177.856 173.456 194.945C163.66 212.004 148.46 222.499 126.735 222.499H51.1393V44.9995Z" fill="#E3E8F0" stroke="#E3E8F0"/>
</svg>
